X: 17597
T: Hoffedd Modryb Marged
R: slip jig
M: 9/8
K: Eminor
|:E2 e BGE BGE|E2 e BGE AFD|E2 e BGE BGE|def gab fdB:|
|:B2 g geB geB|B2g geB fdB|B2 g geB geB|def (3gab g fdB:|

